X:132 
T:Miss Brown's Fancy 
F:file ID: cre.5/132miss_bf
B:CRE5.060 (Rogha InÃÂÃÂÃÂÃÂ­on de Brun)
Q:160
M:9/8
R:slip jig
K:D
"E dorian"
E2A A2B cBc|E2F G2A BAG|
[1 E2A A2B c2d|efg dec BAG:|
[2 c2c BdB GBd|g2g edc BAG||
|:a2a efg afd|g2g def gdB|
[1 a2a efg afd|g2g edc BAG:|
[2 a2a faf ded|g2g edc BAG||


%%%

